X: 4
T: The Silver Spire
R: reel
M: 4/4
L: 1/8
K: Dmaj
D2 FD A,DFA|dcde fdAF|G2BG FADF|(3GFE FD CEA,C|
|D2 FD A,DFA||dcde fdAF|GABG FADF|1 EA,CE D2 (3A,B,C:|2 EA,CE D2 CB,||
|:A,B,CD EFGE|FDEF GABc|dBBA Bcde|fdgf eAce|
|d2fd ceAc|dcdB AFDF|GABG FADF|1EA,CE D2 CB,:|2EA,CE D2 (3A,B,C||


Tune 240	Setting 12947

